packages/ui-icons/src/Basic/32/Personal-offer_32.svg

<svg xmlns="http://www.w3.org/2000/svg" viewBox="0 0 40 40"><path d="M34 28h-8v-6h-5v-4.08A7 7 0 0 0 24.89 16H28a5 5 0 0 0 0-10h-1V4H13v2h-1a5 5 0 1 0 0 10h3.09A7 7 0 0 0 19 17.92V22h-5v6H6v8h28ZM28 8a3 3 0 0 1 0 6h-1.68a7 7 0 0 0 .68-3V8ZM9 11a3 3 0 0 1 3-3h1v3a7 7 0 0 0 .68 3H12a3 3 0 0 1-3-3Zm6 0V6h10v5a5 5 0 1 1-10 0Zm17 23H8v-4h8v-6h8v6h8Z"/></svg>

<svg id="Ready" xmlns="http://www.w3.org/2000/svg" viewBox="0 0 40 40"><title>Megaicons_work_32_1.8_cp</title><path d="M34,28H26V22H21V17.92A7,7,0,0,0,24.89,16H28A5,5,0,0,0,28,6H27V4H13V6H12a5,5,0,1,0,0,10h3.09A7,7,0,0,0,19,17.92V22H14v6H6v8H34ZM28,8a3,3,0,0,1,0,6H26.32A7,7,0,0,0,27,11V8ZM9,11a3,3,0,0,1,3-3h1v3a7,7,0,0,0,.68,3H12A3,3,0,0,1,9,11Zm6,0V6H25v5a5,5,0,1,1-10,0ZM32,34H8V30h8V24h8v6h8Z"/></svg>
